svg/ev_plug_domestic_a.svg

<svg width="24" height="24" viewBox="0 0 24 24" xmlns="http://www.w3.org/2000/svg">
<path d="M7 15V9H9V15H7Z" />
<path d="M15 15V9H17V15H15Z" />
<path fill-rule="evenodd" clip-rule="evenodd" d="M6 5H18C20.2091 5 22 6.79086 22 9V15C22 17.2091 20.2091 19 18 19H6C3.79086 19 2 17.2091 2 15V9C2 6.79086 3.79086 5 6 5ZM6 7C4.89543 7 4 7.89543 4 9V15C4 16.1046 4.89543 17 6 17H18C19.1046 17 20 16.1046 20 15V9C20 7.89543 19.1046 7 18 7H6Z" />
</svg>

<svg width="24" height="24" viewBox="0 0 24 24" xmlns="http://www.w3.org/2000/svg"><path d="M7 15V9h2v6H7zM15 15V9h2v6h-2z"/><path fill-rule="evenodd" clip-rule="evenodd" d="M6 5h12a4 4 0 0 1 4 4v6a4 4 0 0 1-4 4H6a4 4 0 0 1-4-4V9a4 4 0 0 1 4-4zm0 2a2 2 0 0 0-2 2v6a2 2 0 0 0 2 2h12a2 2 0 0 0 2-2V9a2 2 0 0 0-2-2H6z"/></svg>
